src/pos-icons/cart-outline.svg

<svg height="24" viewBox="0 0 24 24" width="24" xmlns="http://www.w3.org/2000/svg"><path d="m17 18a2 2 0 0 1 2 2 2 2 0 0 1 -2 2c-1.11 0-2-.9-2-2 0-1.11.89-2 2-2m-16-16h3.27l.94 2h14.79a1 1 0 0 1 1 1c0 .17-.05.34-.12.5l-3.58 6.47c-.34.61-1 1.03-1.75 1.03h-7.45l-.9 1.63-.03.12a.25.25 0 0 0 .25.25h11.58v2h-12c-1.11 0-2-.9-2-2 0-.35.09-.68.24-.96l1.36-2.45-3.6-7.59h-2zm6 16a2 2 0 0 1 2 2 2 2 0 0 1 -2 2c-1.11 0-2-.9-2-2 0-1.11.89-2 2-2m9-7 2.78-5h-12.64l2.36 5z"/></svg>

<?xml version="1.0" encoding="UTF-8"?><!DOCTYPE svg PUBLIC "-//W3C//DTD SVG 1.1//EN" "http://www.w3.org/Graphics/SVG/1.1/DTD/svg11.dtd"><svg xmlns="http://www.w3.org/2000/svg" xmlns:xlink="http://www.w3.org/1999/xlink" version="1.1" id="mdi-cart-outline" width="24" height="24" viewBox="0 0 24 24"><path d="M17,18A2,2 0 0,1 19,20A2,2 0 0,1 17,22C15.89,22 15,21.1 15,20C15,18.89 15.89,18 17,18M1,2H4.27L5.21,4H20A1,1 0 0,1 21,5C21,5.17 20.95,5.34 20.88,5.5L17.3,11.97C16.96,12.58 16.3,13 15.55,13H8.1L7.2,14.63L7.17,14.75A0.25,0.25 0 0,0 7.42,15H19V17H7C5.89,17 5,16.1 5,15C5,14.65 5.09,14.32 5.24,14.04L6.6,11.59L3,4H1V2M7,18A2,2 0 0,1 9,20A2,2 0 0,1 7,22C5.89,22 5,21.1 5,20C5,18.89 5.89,18 7,18M16,11L18.78,6H6.14L8.5,11H16Z" /></svg>
